src/cmd/lc_insertcolumns.svg

<svg viewBox="0 0 24 24" xmlns="http://www.w3.org/2000/svg"><path d="m10 4v1h4v2h-4v1h4v2h-4v1h4v2h-4v1h4 1 4 1v-1-8-1h-5-1zm5 1h4v2h-4zm0 3h4v2h-4zm0 3h4v2h-4zm2 4v2h-2v1h2v2h1v-2h2v-1h-2v-2zm-7 1v1h4v-1zm0 3v1h4v-1z" fill="#232629"/><path d="m4 4v1 3 1.28125 2.71875 4 1.28125 1.71875 1h1 .28125 1.4375 2.28125 1v-1-3-4-4-3-1h-1-4zm1 1h3.28125l-3.28125 3.28125v-.28125zm4 .71875v2.28125.28125l-3.71875 3.71875-.28125.28125v-.28125-2.28125zm0 4v2.28125.28125l-3.71875 3.71875-.28125.28125v-.28125-2.28125l1.71875-1.71875zm0 4v2.28125.28125l-2.71875 2.71875h-1.28125v-1.28125l1.71875-1.71875zm0 4v1.28125h-1.28125z" fill="#762572"/></svg>

<?xml version="1.0" encoding="UTF-8" standalone="no"?>
<svg
   xmlns:dc="http://purl.org/dc/elements/1.1/"
   xmlns:cc="http://creativecommons.org/ns#"
   xmlns:rdf="http://www.w3.org/1999/02/22-rdf-syntax-ns#"
   xmlns:svg="http://www.w3.org/2000/svg"
   xmlns="http://www.w3.org/2000/svg"
   xmlns:sodipodi="http://sodipodi.sourceforge.net/DTD/sodipodi-0.dtd"
   xmlns:inkscape="http://www.inkscape.org/namespaces/inkscape"
   viewBox="0 0 24 24"
   version="1.1"
   id="svg6"
   sodipodi:docname="lc_insertcolumns.svg"
   inkscape:version="0.92.4 (5da689c313, 2019-01-14)">
  <metadata
     id="metadata12">
    <rdf:RDF>
      <cc:Work
         rdf:about="">
        <dc:format>image/svg+xml</dc:format>
        <dc:type
           rdf:resource="http://purl.org/dc/dcmitype/StillImage" />
      </cc:Work>
    </rdf:RDF>
  </metadata>
  <defs
     id="defs10" />
  <sodipodi:namedview
     pagecolor="#ffffff"
     bordercolor="#666666"
     borderopacity="1"
     objecttolerance="10"
     gridtolerance="10"
     guidetolerance="10"
     inkscape:pageopacity="0"
     inkscape:pageshadow="2"
     inkscape:window-width="1920"
     inkscape:window-height="1011"
     id="namedview8"
     showgrid="true"
     inkscape:zoom="22.627417"
     inkscape:cx="10.095554"
     inkscape:cy="14.229958"
     inkscape:window-x="1920"
     inkscape:window-y="32"
     inkscape:window-maximized="1"
     inkscape:current-layer="svg6">
    <inkscape:grid
       type="xygrid"
       id="grid822" />
  </sodipodi:namedview>
  <path
     d="m 10,4 v 1 h 4 v 2 h -4 v 1 h 4 v 2 h -4 v 1 h 4 v 2 h -4 v 1 h 4 1 4 1 V 13 6 C 20,4 19,4 17,4 h -2 -1 z m 5,1 h 2 c 1,0 2,0 2,1 v 1 h -4 z m 0,3 h 4 v 2 h -4 z m 0,3 h 4 v 2 h -4 z m 2,4 v 2 h -2 v 1 h 2 v 2 h 1 v -2 h 2 v -1 h -2 v -2 z m -7,1 v 1 h 4 v -1 z m 0,3 v 1 h 4 v -1 z"
     id="path2"
     inkscape:connector-curvature="0"
     style="fill:#232629"
     sodipodi:nodetypes="ccccccccccccccccccccccccccccccccccccccccccccccccccccccccccccccc" />
  <path
     d="M 4,6 V 8 9.28125 12 16 17.28125 18 c 0,2 1,2 3,2 h 2 1 V 19 16 12 8 5 4 H 9 7 C 5,4 4,4 4,6 Z M 7,5 H 8.28125 L 5,8.28125 V 8 6 C 5,5 6,5 7,5 Z M 9,5.71875 V 8 8.28125 L 5.28125,12 5,12.28125 V 12 9.71875 Z m 0,4 V 12 12.28125 L 5.28125,16 5,16.28125 V 16 13.71875 L 6.71875,12 Z m 0,4 V 16 16.28125 L 6.28125,19 C 6,19 5.0331222,18.864603 5,18 V 17.71875 L 6.71875,16 Z m 0,4 V 19 H 7.71875 Z"
     id="path4"
     inkscape:connector-curvature="0"
     style="fill:#762572"
     sodipodi:nodetypes="cccccccccccccccccccccccccccccccccccccccccccccccccccccc" />
</svg>
